; G-Code generated by Simplify3D(R) Version 4.1.2
; Feb 7, 2024 at 3:04:54 PM
; Settings Summary
;   processName,paclemaker_15.09.2022_NO_OFF
;   applyToModels,Andonstar_AD407_lens_cover-Part
;   profileName,paclemaker_15.09.2022_NO_OFF
;   profileVersion,2021-12-01 17:13:37
;   baseProfile,bq Witbox (modified)
;   printMaterial,
;   printQuality,
;   printExtruders,
;   extruderName,Primary Extruder
;   extruderToolheadNumber,0
;   extruderDiameter,0.4
;   extruderAutoWidth,1
;   extruderWidth,0.48
;   extrusionMultiplier,1
;   extruderUseRetract,1
;   extruderRetractionDistance,1
;   extruderExtraRestartDistance,0
;   extruderRetractionZLift,0
;   extruderRetractionSpeed,1800
;   extruderUseCoasting,0
;   extruderCoastingDistance,0.2
;   extruderUseWipe,0
;   extruderWipeDistance,5
;   primaryExtruder,0
;   layerHeight,0.24
;   topSolidLayers,5
;   bottomSolidLayers,3
;   perimeterOutlines,2
;   printPerimetersInsideOut,1
;   startPointOption,2
;   startPointOriginX,0
;   startPointOriginY,0
;   sequentialIslands,0
;   spiralVaseMode,0
;   firstLayerHeightPercentage,90
;   firstLayerWidthPercentage,100
;   firstLayerUnderspeed,0.5
;   useRaft,0
;   raftExtruder,0
;   raftTopLayers,3
;   raftBaseLayers,2
;   raftOffset,3
;   raftSeparationDistance,0.14
;   raftTopInfill,100
;   aboveRaftSpeedMultiplier,0.3
;   useSkirt,1
;   skirtExtruder,0
;   skirtLayers,1
;   skirtOutlines,2
;   skirtOffset,4
;   usePrimePillar,0
;   primePillarExtruder,999
;   primePillarWidth,12
;   primePillarLocation,7
;   primePillarSpeedMultiplier,1
;   useOozeShield,0
;   oozeShieldExtruder,999
;   oozeShieldOffset,2
;   oozeShieldOutlines,1
;   oozeShieldSidewallShape,1
;   oozeShieldSidewallAngle,30
;   oozeShieldSpeedMultiplier,1
;   infillExtruder,0
;   internalInfillPattern,Rectilinear
;   externalInfillPattern,Rectilinear
;   infillPercentage,6
;   outlineOverlapPercentage,15
;   infillExtrusionWidthPercentage,100
;   minInfillLength,5
;   infillLayerInterval,1
;   internalInfillAngles,45,-45
;   overlapInternalInfillAngles,0
;   externalInfillAngles,45,-45
;   generateSupport,0
;   supportExtruder,0
;   supportInfillPercentage,30
;   supportExtraInflation,1
;   supportBaseLayers,0
;   denseSupportExtruder,0
;   denseSupportLayers,0
;   denseSupportInfillPercentage,70
;   supportLayerInterval,1
;   supportHorizontalPartOffset,0.3
;   supportUpperSeparationLayers,1
;   supportLowerSeparationLayers,1
;   supportType,0
;   supportGridSpacing,4
;   maxOverhangAngle,45
;   supportAngles,0
;   temperatureName,Primary Extruder
;   temperatureNumber,0
;   temperatureSetpointCount,1
;   temperatureSetpointLayers,1
;   temperatureSetpointTemperatures,220
;   temperatureStabilizeAtStartup,1
;   temperatureHeatedBed,0
;   fanLayers,1,3
;   fanSpeeds,0,30
;   blipFanToFullPower,0
;   adjustSpeedForCooling,1
;   minSpeedLayerTime,3
;   minCoolingSpeedSlowdown,20
;   increaseFanForCooling,0
;   minFanLayerTime,45
;   maxCoolingFanSpeed,100
;   increaseFanForBridging,0
;   bridgingFanSpeed,100
;   use5D,1
;   relativeEdistances,0
;   allowEaxisZeroing,1
;   independentExtruderAxes,0
;   includeM10123,0
;   stickySupport,1
;   applyToolheadOffsets,0
;   gcodeXoffset,0
;   gcodeYoffset,0
;   gcodeZoffset,0
;   overrideMachineDefinition,1
;   machineTypeOverride,0
;   strokeXoverride,230
;   strokeYoverride,310
;   strokeZoverride,200
;   originOffsetXoverride,0
;   originOffsetYoverride,0
;   originOffsetZoverride,0
;   homeXdirOverride,-1
;   homeYdirOverride,-1
;   homeZdirOverride,-1
;   flipXoverride,1
;   flipYoverride,-1
;   flipZoverride,1
;   toolheadOffsets,0,0|0,0|0,0|0,0|0,0|0,0
;   overrideFirmwareConfiguration,1
;   firmwareTypeOverride,RepRap (Marlin/Repetier/Sprinter)
;   GPXconfigOverride,r2
;   baudRateOverride,115200
;   overridePrinterModels,1
;   printerModelsOverride
;   startingGcode,M109 S[extruder0_temperature],M107 ; start with the fan off,M851 Z-1.1 ; Set Z offset to 1.4mm,G28,;G10 P0 Z1.4 ;Setup for Z probe offset,; G29 ; FULL bed leveling,G29 P2 ; bed leveling 2X2 points,G1 Z15.0 F1200 ; move the platform down 15mm,G92 E0 ; zero the extruded length,G1 F200 E5 ; extrude 5mm of feed stock,G92 E0 ; zero the extruded length again,G1 F3600,M117 Printing...,,;G28 ;Home,;G1 Z15.0 F6000 ;Move the platform down 15mm,;Prime the extruder,;G92 E0,;G1 F200 E3,;G92 E0
;   layerChangeGcode,
;   retractionGcode,
;   toolChangeGcode,
;   endingGcode,G92 E0,G1 E-5 F300 ; retract the filament a bit before lifting the nozzle,;G28 X0 Y0 ; move X/Y to min endstops so the head is out of the way,G28 X0 ; home X,M104 S0 ; extruder heater off,M140 S0 ; heated bed heater off (if you have it),M84 ; steppers off,;M81 : Power off
;   exportFileFormat,gcode
;   celebration,0
;   celebrationSong,Random Song
;   postProcessing,
;   defaultSpeed,4800
;   outlineUnderspeed,0.6
;   solidInfillUnderspeed,0.8
;   supportUnderspeed,0.8
;   rapidXYspeed,7200
;   rapidZspeed,2400
;   minBridgingArea,50
;   bridgingExtraInflation,0
;   bridgingExtrusionMultiplier,1
;   bridgingSpeedMultiplier,1
;   useFixedBridgingAngle,0
;   fixedBridgingAngle,0
;   applyBridgingToPerimeters,0
;   filamentDiameters,1.75|1.75|1.75|1.75|1.75|1.75
;   filamentPricesPerKg,20|20|20|20|20|20
;   filamentDensities,1.25|1.25|1.25|1.25|1.25|1.25
;   useMinPrintHeight,0
;   minPrintHeight,0
;   useMaxPrintHeight,0
;   maxPrintHeight,0
;   useDiaphragm,0
;   diaphragmLayerInterval,20
;   robustSlicing,1
;   mergeAllIntoSolid,0
;   onlyRetractWhenCrossingOutline,1
;   retractBetweenLayers,1
;   useRetractionMinTravel,0
;   retractionMinTravel,3
;   retractWhileWiping,0
;   onlyWipeOutlines,1
;   avoidCrossingOutline,1
;   maxMovementDetourFactor,3
;   toolChangeRetractionDistance,12
;   toolChangeExtraRestartDistance,-0.5
;   toolChangeRetractionSpeed,600
;   externalThinWallType,0
;   internalThinWallType,2
;   thinWallAllowedOverlapPercentage,10
;   singleExtrusionMinLength,1
;   singleExtrusionMinPrintingWidthPercentage,50
;   singleExtrusionMaxPrintingWidthPercentage,200
;   singleExtrusionEndpointExtension,0.2
;   horizontalSizeCompensation,0
G90
M82
M106 S0
M109 S220
M107 ; start with the fan off
M851 Z-1.1 ; Set Z offset to 1.4mm
G28
;G10 P0 Z1.4 ;Setup for Z probe offset
; G29 ; FULL bed leveling
G29 P2 ; bed leveling 2X2 points
G1 Z15.0 F1200 ; move the platform down 15mm
G92 E0 ; zero the extruded length
G1 F200 E5 ; extrude 5mm of feed stock
G92 E0 ; zero the extruded length again
G1 F3600
M117 Printing...
;G28 ;Home
;G1 Z15.0 F6000 ;Move the platform down 15mm
;Prime the extruder
;G92 E0
;G1 F200 E3
;G92 E0
; process paclemaker_15.09.2022_NO_OFF
; layer 1, Z = 0.216
T0
G92 E0.0000
G1 E-1.0000 F1800
; feature skirt
; tool H0.216 W0.480
G1 Z0.216 F2400
G1 X101.493 Y136.112 F7200
G1 E0.0000 F1800
G92 E0.0000
G1 X102.353 Y135.527 E0.0448 F2400
G1 X102.452 Y135.463 E0.0499
G1 X103.339 Y134.920 E0.0947
G1 X103.441 Y134.861 E0.0998
G1 X104.354 Y134.364 E0.1446
G1 X104.459 Y134.310 E0.1497
G1 X105.396 Y133.859 E0.1946
G1 X105.504 Y133.811 E0.1996
G1 X106.462 Y133.407 E0.2445
G1 X106.572 Y133.364 E0.2495
G1 X107.549 Y133.008 E0.2944
G1 X107.661 Y132.970 E0.2994
G1 X108.654 Y132.664 E0.3443
G1 X108.768 Y132.632 E0.3494
G1 X109.776 Y132.375 E0.3942
G1 X109.890 Y132.349 E0.3993
G1 X110.910 Y132.143 E0.4441
G1 X111.026 Y132.123 E0.4492
G1 X112.054 Y131.968 E0.4940
G1 X112.171 Y131.953 E0.4991
G1 X113.206 Y131.849 E0.5439
G1 X113.323 Y131.841 E0.5490
G1 X114.362 Y131.789 E0.5938
G1 X114.480 Y131.786 E0.5989
G1 X115.520 Y131.786 E0.6437
G1 X115.638 Y131.789 E0.6488
G1 X116.676 Y131.841 E0.6936
G1 X116.794 Y131.849 E0.6987
G1 X117.829 Y131.953 E0.7435
G1 X117.946 Y131.968 E0.7486
G1 X118.974 Y132.123 E0.7935
G1 X119.090 Y132.143 E0.7985
G1 X120.110 Y132.349 E0.8434
G1 X120.224 Y132.375 E0.8484
G1 X121.232 Y132.632 E0.8933
G1 X121.346 Y132.664 E0.8983
G1 X122.339 Y132.970 E0.9432
G1 X122.451 Y133.008 E0.9483
G1 X123.428 Y133.364 E0.9931
G1 X123.538 Y133.407 E0.9982
G1 X124.496 Y133.811 E1.0430
G1 X124.604 Y133.859 E1.0481
G1 X125.541 Y134.310 E1.0929
G1 X125.646 Y134.364 E1.0980
G1 X126.559 Y134.861 E1.1428
G1 X126.661 Y134.920 E1.1479
G1 X127.548 Y135.463 E1.1927
G1 X127.647 Y135.527 E1.1978
G1 X128.507 Y136.112 E1.2426
G1 X128.602 Y136.181 E1.2477
G1 X129.431 Y136.809 E1.2925
G1 X129.523 Y136.883 E1.2976
G1 X130.320 Y137.551 E1.3424
G1 X130.408 Y137.629 E1.3475
G1 X131.171 Y138.336 E1.3923
G1 X131.255 Y138.419 E1.3974
G1 X131.981 Y139.163 E1.4423
G1 X132.061 Y139.250 E1.4473
G1 X132.750 Y140.029 E1.4922
G1 X132.825 Y140.120 E1.4972
G1 X133.474 Y140.933 E1.5421
G1 X133.545 Y141.027 E1.5471
G1 X134.152 Y141.871 E1.5920
G1 X134.218 Y141.968 E1.5971
G1 X134.783 Y142.842 E1.6419
G1 X134.844 Y142.943 E1.6470
G1 X135.364 Y143.843 E1.6918
G1 X135.420 Y143.947 E1.6969
G1 X135.895 Y144.872 E1.7417
G1 X135.946 Y144.978 E1.7468
G1 X136.374 Y145.926 E1.7916
G1 X136.420 Y146.035 E1.7967
G1 X136.800 Y147.003 E1.8415
G1 X136.840 Y147.113 E1.8466
G1 X137.171 Y148.100 E1.8914
G1 X137.206 Y148.212 E1.8965
G1 X137.487 Y149.213 E1.9413
G1 X137.516 Y149.327 E1.9464
G1 X137.748 Y150.341 E1.9912
G1 X137.771 Y150.457 E1.9963
G1 X137.952 Y151.481 E2.0412
G1 X137.969 Y151.597 E2.0462
G1 X138.099 Y152.629 E2.0911
G1 X138.110 Y152.747 E2.0961
G1 X138.188 Y153.784 E2.1410
G1 X138.194 Y153.901 E2.1460
G1 X138.220 Y154.941 E2.1909
G1 X138.220 Y155.059 E2.1959
G1 X138.194 Y156.099 E2.2408
G1 X138.188 Y156.216 E2.2459
G1 X138.110 Y157.253 E2.2907
G1 X138.099 Y157.371 E2.2958
G1 X137.969 Y158.403 E2.3406
G1 X137.952 Y158.519 E2.3457
G1 X137.771 Y159.543 E2.3905
G1 X137.748 Y159.659 E2.3956
G1 X137.517 Y160.673 E2.4404
G1 X137.487 Y160.787 E2.4455
G1 X137.206 Y161.788 E2.4903
G1 X137.171 Y161.900 E2.4954
G1 X136.840 Y162.886 E2.5402
G1 X136.800 Y162.997 E2.5453
G1 X136.420 Y163.965 E2.5901
G1 X136.374 Y164.074 E2.5952
G1 X135.946 Y165.022 E2.6400
G1 X135.895 Y165.128 E2.6451
G1 X135.420 Y166.053 E2.6900
G1 X135.364 Y166.157 E2.6950
G1 X134.844 Y167.057 E2.7399
G1 X134.783 Y167.158 E2.7449
G1 X134.218 Y168.032 E2.7898
G1 X134.152 Y168.129 E2.7948
G1 X133.545 Y168.973 E2.8397
G1 X133.474 Y169.067 E2.8447
G1 X132.825 Y169.880 E2.8896
G1 X132.750 Y169.971 E2.8947
G1 X132.061 Y170.750 E2.9395
G1 X131.981 Y170.837 E2.9446
G1 X131.255 Y171.581 E2.9894
G1 X131.171 Y171.664 E2.9945
G1 X130.408 Y172.371 E3.0393
G1 X130.320 Y172.449 E3.0444
G1 X129.523 Y173.117 E3.0892
G1 X129.431 Y173.191 E3.0943
G1 X128.602 Y173.819 E3.1391
G1 X128.507 Y173.888 E3.1442
G1 X127.647 Y174.473 E3.1890
G1 X127.548 Y174.537 E3.1941
G1 X126.661 Y175.080 E3.2389
G1 X126.559 Y175.139 E3.2440
G1 X125.646 Y175.636 E3.2888
G1 X125.541 Y175.690 E3.2939
G1 X124.604 Y176.141 E3.3388
G1 X124.496 Y176.189 E3.3438
G1 X123.538 Y176.593 E3.3887
G1 X123.428 Y176.636 E3.3937
G1 X122.451 Y176.992 E3.4386
G1 X122.339 Y177.030 E3.4436
G1 X121.346 Y177.336 E3.4885
G1 X121.232 Y177.368 E3.4936
G1 X120.224 Y177.625 E3.5384
G1 X120.110 Y177.651 E3.5435
G1 X119.090 Y177.857 E3.5883
G1 X118.974 Y177.877 E3.5934
G1 X117.946 Y178.032 E3.6382
G1 X117.829 Y178.047 E3.6433
G1 X116.794 Y178.151 E3.6881
G1 X116.677 Y178.159 E3.6932
G1 X115.638 Y178.211 E3.7380
G1 X115.520 Y178.214 E3.7431
G1 X114.480 Y178.214 E3.7879
G1 X114.362 Y178.211 E3.7930
G1 X113.323 Y178.159 E3.8378
G1 X113.206 Y178.151 E3.8429
G1 X112.171 Y178.047 E3.8877
G1 X112.054 Y178.032 E3.8928
G1 X111.026 Y177.877 E3.9377
G1 X110.910 Y177.857 E3.9427
G1 X109.890 Y177.651 E3.9876
G1 X109.776 Y177.625 E3.9926
G1 X108.768 Y177.368 E4.0375
G1 X108.654 Y177.336 E4.0425
G1 X107.661 Y177.030 E4.0874
G1 X107.549 Y176.992 E4.0924
G1 X106.572 Y176.636 E4.1373
G1 X106.462 Y176.593 E4.1424
G1 X105.504 Y176.189 E4.1872
G1 X105.396 Y176.141 E4.1923
G1 X104.459 Y175.690 E4.2371
G1 X104.354 Y175.636 E4.2422
G1 X103.441 Y175.139 E4.2870
G1 X103.339 Y175.080 E4.2921
G1 X102.452 Y174.537 E4.3369
G1 X102.353 Y174.473 E4.3420
G1 X101.493 Y173.888 E4.3868
G1 X101.398 Y173.819 E4.3919
G1 X100.569 Y173.191 E4.4367
G1 X100.477 Y173.117 E4.4418
G1 X99.680 Y172.449 E4.4866
G1 X99.592 Y172.371 E4.4917
G1 X98.829 Y171.664 E4.5365
G1 X98.745 Y171.581 E4.5416
G1 X98.019 Y170.837 E4.5865
G1 X97.939 Y170.750 E4.5915
G1 X97.250 Y169.971 E4.6364
G1 X97.175 Y169.880 E4.6414
G1 X96.526 Y169.067 E4.6863
G1 X96.455 Y168.973 E4.6913
G1 X95.848 Y168.129 E4.7362
G1 X95.782 Y168.032 E4.7413
G1 X95.217 Y167.158 E4.7861
G1 X95.156 Y167.058 E4.7912
G1 X94.636 Y166.157 E4.8360
G1 X94.580 Y166.053 E4.8411
G1 X94.105 Y165.128 E4.8859
G1 X94.054 Y165.022 E4.8910
G1 X93.626 Y164.074 E4.9358
G1 X93.580 Y163.965 E4.9409
G1 X93.200 Y162.997 E4.9857
G1 X93.160 Y162.886 E4.9908
G1 X92.829 Y161.900 E5.0356
G1 X92.794 Y161.788 E5.0407
G1 X92.513 Y160.787 E5.0855
G1 X92.483 Y160.673 E5.0906
G1 X92.252 Y159.659 E5.1354
G1 X92.229 Y159.543 E5.1405
G1 X92.048 Y158.519 E5.1854
G1 X92.031 Y158.403 E5.1904
G1 X91.901 Y157.368 E5.2354
G1 X91.889 Y157.244 E5.2407
G1 X91.810 Y156.157 E5.2877
G1 X91.805 Y156.046 E5.2925
G1 X91.780 Y155.059 E5.3351
G1 X91.780 Y154.941 E5.3401
G1 X91.806 Y153.901 E5.3850
G1 X91.812 Y153.784 E5.3901
G1 X91.890 Y152.747 E5.4349
G1 X91.901 Y152.629 E5.4400
G1 X92.031 Y151.597 E5.4848
G1 X92.048 Y151.481 E5.4899
G1 X92.229 Y150.457 E5.5347
G1 X92.252 Y150.341 E5.5398
G1 X92.483 Y149.327 E5.5846
G1 X92.513 Y149.213 E5.5897
G1 X92.794 Y148.212 E5.6345
G1 X92.829 Y148.100 E5.6396
G1 X93.160 Y147.114 E5.6844
G1 X93.200 Y147.003 E5.6895
G1 X93.580 Y146.035 E5.7343
G1 X93.626 Y145.926 E5.7394
G1 X94.054 Y144.978 E5.7842
G1 X94.105 Y144.872 E5.7893
G1 X94.580 Y143.947 E5.8341
G1 X94.636 Y143.843 E5.8392
G1 X95.156 Y142.942 E5.8841
G1 X95.217 Y142.842 E5.8891
G1 X95.782 Y141.968 E5.9340
G1 X95.848 Y141.871 E5.9390
G1 X96.455 Y141.027 E5.9839
G1 X96.526 Y140.933 E5.9889
G1 X97.175 Y140.120 E6.0338
G1 X97.250 Y140.029 E6.0389
G1 X97.939 Y139.250 E6.0837
G1 X98.019 Y139.163 E6.0888
G1 X98.745 Y138.419 E6.1336
G1 X98.829 Y138.336 E6.1387
G1 X99.592 Y137.629 E6.1835
G1 X99.680 Y137.551 E6.1886
G1 X100.477 Y136.883 E6.2334
G1 X100.569 Y136.809 E6.2385
G1 X101.398 Y136.181 E6.2833
G1 X101.493 Y136.112 E6.2884
G92 E0.0000
G1 E-1.0000 F1800
G1 X101.769 Y136.506 F7200
G1 E0.0000 F1800
G92 E0.0000
G1 X102.618 Y135.926 E0.0443 F2400
G1 X102.707 Y135.869 E0.0489
G1 X103.584 Y135.333 E0.0932
G1 X103.676 Y135.280 E0.0978
G1 X104.579 Y134.788 E0.1421
G1 X104.673 Y134.740 E0.1466
G1 X105.599 Y134.294 E0.1909
G1 X105.696 Y134.251 E0.1955
G1 X106.643 Y133.851 E0.2398
G1 X106.741 Y133.813 E0.2444
G1 X107.707 Y133.461 E0.2887
G1 X107.808 Y133.427 E0.2933
G1 X108.790 Y133.124 E0.3376
G1 X108.892 Y133.096 E0.3421
G1 X109.888 Y132.842 E0.3865
G1 X109.991 Y132.818 E0.3910
G1 X110.999 Y132.615 E0.4353
G1 X111.103 Y132.596 E0.4399
G1 X112.120 Y132.443 E0.4842
G1 X112.225 Y132.430 E0.4888
G1 X113.248 Y132.328 E0.5331
G1 X113.353 Y132.320 E0.5376
G1 X114.380 Y132.268 E0.5820
G1 X114.486 Y132.266 E0.5865
G1 X115.514 Y132.266 E0.6308
G1 X115.620 Y132.268 E0.6354
G1 X116.647 Y132.320 E0.6797
G1 X116.752 Y132.328 E0.6843
G1 X117.775 Y132.430 E0.7286
G1 X117.880 Y132.443 E0.7331
G1 X118.897 Y132.596 E0.7775
G1 X119.001 Y132.615 E0.7820
G1 X120.009 Y132.818 E0.8263
G1 X120.112 Y132.842 E0.8309
G1 X121.108 Y133.096 E0.8752
G1 X121.210 Y133.124 E0.8798
G1 X122.192 Y133.427 E0.9241
G1 X122.293 Y133.461 E0.9286
G1 X123.259 Y133.813 E0.9730
G1 X123.357 Y133.851 E0.9775
G1 X124.304 Y134.251 E1.0218
G1 X124.401 Y134.294 E1.0264
G1 X125.327 Y134.740 E1.0707
G1 X125.421 Y134.788 E1.0753
G1 X126.324 Y135.280 E1.1196
G1 X126.416 Y135.333 E1.1242
G1 X127.293 Y135.869 E1.1685
G1 X127.382 Y135.926 E1.1730
G1 X128.231 Y136.506 E1.2173
G1 X128.317 Y136.567 E1.2219
G1 X129.137 Y137.188 E1.2662
G1 X129.219 Y137.254 E1.2708
G1 X130.007 Y137.915 E1.3151
G1 X130.086 Y137.985 E1.3197
G1 X130.840 Y138.684 E1.3640
G1 X130.916 Y138.758 E1.3685
G1 X131.634 Y139.494 E1.4128
G1 X131.706 Y139.572 E1.4174
G1 X132.386 Y140.343 E1.4617
G1 X132.454 Y140.424 E1.4663
G1 X133.095 Y141.227 E1.5106
G1 X133.159 Y141.312 E1.5152
G1 X133.759 Y142.146 E1.5595
G1 X133.818 Y142.234 E1.5640
G1 X134.376 Y143.097 E1.6084
